build-source/logos/orf1hd.default.svg

<svg xmlns="http://www.w3.org/2000/svg" width="803.08" height="133.87" viewBox="0 0 803.078 133.875"><path fill="#e2001a" d="m0 0h313.7v133.87h-313.7z"/><path d="m227.89 104.19h18.344v-25.12h34.703v-17.554h-34.703v-14.313h42.547v-17.578h-60.891v74.56m-142.03-37.25c0 11.75-10.141 21.14-20.984 21.14-10.969 0-20.992-9.391-20.992-21.14 0-11.766 10.02-21.14 20.992-21.14 10.844 0 20.984 9.375 20.984 21.14m18.954 0c0-21.859-17.75-38.727-39.938-38.727-22.19 0-39.953 16.867-39.953 38.727 0 21.86 17.766 38.719 39.953 38.719 22.19 0 39.938-16.86 39.938-38.719m26.453 37.3h18.375v-21.734h13.719l14.422 21.734h22.906l-18.484-26.13c8.71-3.804 14.796-11.992 14.796-22.1 0-14.836-10.969-26.375-27.672-26.375h-38.06v74.61zm36.984-39.32h-18.609v-17.695h18.609c7.984 0 10.375 3.914 10.375 8.781 0 5-2.391 8.914-10.375 8.914" fill="#fff"/><path fill="#007787" d="m313.7 0h313.7v133.87h-313.7z"/><path d="m577.7 105.48c14.813 0 26.469-8.188 26.469-22.297v-.281c0-13.375-12.375-17.844-23.891-21.297-9.906-3.02-19.12-5.758-19.12-12.805v-.273c0-6.203 5.617-10.797 14.406-10.797 7.188 0 15.08 2.734 21.984 7.203l5.05-8.352c-7.625-5.04-17.703-8.203-26.75-8.203-14.688 0-25.328 8.492-25.328 21.289v.289c0 13.664 12.953 17.695 24.594 21 9.781 2.727 18.563 5.602 18.563 13.09v.289c0 7.195-6.484 11.797-15.391 11.797-8.781 0-17.688-3.445-25.742-9.492l-5.617 7.906c8.344 6.767 20.13 10.938 30.781 10.938m-113.2-1.437h11.08v-42.578c0-13.953 9.5-23.305 22.297-23.305 13.08 0 20.578 8.633 20.578 22.445v43.44h11.06v-46.17c0-17.688-10.5-29.781-28.469-29.781-12.797 0-20.578 6.484-25.469 14.531v-12.937h-11.08v74.36zm-36.812 0h11.09v-74.36h-11.09v74.36m-79.55-41.563c1.594-14.391 11.375-25.03 24.17-25.03 14.656 0 22.438 11.5 23.734 25.03h-47.906m0 8.907h58.984c.141-1.719.141-2.867.141-3.875 0-21.875-12.656-39.42-34.672-39.42-20.547 0-35.656 17.258-35.656 38.844 0 23.16 16.68 38.828 37.11 38.828 14.1 0 23.14-5.609 30.641-13.953l-6.906-6.18c-6.04 6.32-13.234 10.5-23.445 10.5-13.11 0-24.603-9.06-26.2-24.742" fill="#fff"/><g fill="#e2001a"><path d="m784.69 66.93c0 10.867-8.109 19.836-21.625 19.836h-16v-39.657h16c13.515 0 21.625 8.961 21.625 19.821m18.39 0c0-19.82-15.297-37.492-40.02-37.492h-34.25v74.992h34.25c24.25 0 40.02-17.664 40.02-37.5m-91.58 37.5v-74.992h-18.391v27.812h-30.563v-27.812h-18.391v74.992h18.391v-29.492h30.563v29.492h18.391z"/><path d="m662.64 112.28h-7.609v21.594h133.88v-29.12c-2.375 1.453-4.891 2.734-7.609 3.758v17.758h-118.66v-13.985m118.66-86.8c2.719 1.016 5.234 2.273 7.609 3.688v-29.17h-133.88v21.859h7.609v-14.25h118.66v17.875"/></g></svg>

<?xml version="1.0" encoding="UTF-8" standalone="no"?>
<!-- Created with Inkscape (http://www.inkscape.org/) -->

<svg
   xmlns:dc="http://purl.org/dc/elements/1.1/"
   xmlns:cc="http://creativecommons.org/ns#"
   xmlns:rdf="http://www.w3.org/1999/02/22-rdf-syntax-ns#"
   xmlns:svg="http://www.w3.org/2000/svg"
   xmlns="http://www.w3.org/2000/svg"
   version="1.1"
   width="803.078"
   height="133.875"
   viewBox="0 0 803.078 133.875"
   id="Ebene_1"
   xml:space="preserve"><metadata
   id="metadata21"><rdf:RDF><cc:Work
       rdf:about=""><dc:format>image/svg+xml</dc:format><dc:type
         rdf:resource="http://purl.org/dc/dcmitype/StillImage" /><dc:title></dc:title></cc:Work></rdf:RDF></metadata><defs
   id="defs19">
	
	
	
	
	
	
</defs>
<rect
   width="313.703"
   height="133.875"
   x="-1.4648438e-006"
   y="0"
   id="rect5"
   style="fill:#e2001a;fill-opacity:1;stroke:none" /><path
   d="m 227.891,104.188 h 18.344 V 79.07 h 34.703 V 61.516 H 246.235 V 47.203 h 42.547 V 29.625 h -60.891 v 74.563 z M 85.858999,66.938 c 0,11.75 -10.141,21.141 -20.984,21.141 -10.969,0 -20.992,-9.391 -20.992,-21.141 0,-11.766 10.023,-21.141 20.992,-21.141 10.844,0 20.984,9.375 20.984,21.141 m 18.954001,0 c 0,-21.859 -17.750001,-38.727 -39.938001,-38.727 -22.188,0 -39.953,16.867 -39.953,38.727 0,21.86 17.766,38.719 39.953,38.719 22.187,0 39.938001,-16.86 39.938001,-38.719 m 26.453,37.296 h 18.375 V 82.5 h 13.719 l 14.422,21.734 h 22.906 L 182.204,78.101 C 190.914,74.297 197,66.109 197,56 197,41.164 186.031,29.625 169.328,29.625 h -38.063 v 74.609 z M 168.25,64.914 H 149.641 V 47.219 h 18.609 c 7.984,0 10.375,3.914 10.375,8.781 0,5 -2.391,8.914 -10.375,8.914"
   id="path7"
   style="fill:#ffffff;stroke:none" /><rect
   width="313.703"
   height="133.875"
   x="313.703"
   y="0"
   id="rect9"
   style="fill:#007787;stroke:none" /><path
   d="m 577.703,105.484 c 14.813,0 26.469,-8.188 26.469,-22.297 v -0.281 c 0,-13.375 -12.375,-17.844 -23.891,-21.297 -9.906,-3.016 -19.125,-5.758 -19.125,-12.805 v -0.273 c 0,-6.203 5.617,-10.797 14.406,-10.797 7.188,0 15.078,2.734 21.984,7.203 l 5.047,-8.352 c -7.625,-5.039 -17.703,-8.203 -26.75,-8.203 -14.688,0 -25.328,8.492 -25.328,21.289 v 0.289 c 0,13.664 12.953,17.695 24.594,21 9.781,2.727 18.563,5.602 18.563,13.086 v 0.289 c 0,7.195 -6.484,11.797 -15.391,11.797 -8.781,0 -17.688,-3.445 -25.742,-9.492 l -5.617,7.906 c 8.344,6.767 20.133,10.938 30.781,10.938 M 464.5,104.047 h 11.078 V 61.469 c 0,-13.953 9.5,-23.305 22.297,-23.305 13.078,0 20.578,8.633 20.578,22.445 v 43.438 h 11.063 V 57.875 c 0,-17.688 -10.5,-29.781 -28.469,-29.781 -12.797,0 -20.578,6.484 -25.469,14.531 V 29.688 H 464.5 v 74.359 z m -36.812,0 h 11.086 V 29.688 h -11.086 v 74.359 z M 348.141,62.484 c 1.594,-14.391 11.375,-25.031 24.172,-25.031 14.656,0 22.438,11.5 23.734,25.031 h -47.906 z m 0,8.907 h 58.984 c 0.141,-1.719 0.141,-2.867 0.141,-3.875 0,-21.875 -12.656,-39.422 -34.672,-39.422 -20.547,0 -35.656,17.258 -35.656,38.844 0,23.156 16.68,38.828 37.109,38.828 14.102,0 23.141,-5.609 30.641,-13.953 l -6.906,-6.18 c -6.039,6.32 -13.234,10.5 -23.445,10.5 -13.11,0 -24.603,-9.055 -26.196,-24.742"
   id="path11"
   style="fill:#ffffff;stroke:none" /><path
   d="m 784.688,66.93 c 0,10.867 -8.109,19.836 -21.625,19.836 h -16 V 47.109 h 16 c 13.515,0 21.625,8.961 21.625,19.821 m 18.39,0 c 0,-19.82 -15.297,-37.492 -40.016,-37.492 h -34.25 v 74.992 h 34.25 c 24.251,0 40.016,-17.664 40.016,-37.5 M 711.5,104.43 V 29.438 H 693.109 V 57.25 H 662.546 V 29.438 h -18.391 v 74.992 h 18.391 V 74.938 h 30.563 V 104.43 H 711.5 z"
   id="path13"
   style="fill:#e2001a;fill-opacity:1;stroke:none" /><path
   d="m 662.641,112.281 h -7.609 v 21.594 H 788.907 V 104.75 c -2.375,1.453 -4.891,2.734 -7.609,3.758 v 17.758 H 662.641 V 112.281 z M 781.297,25.484 c 2.719,1.016 5.234,2.273 7.609,3.688 V 0 H 655.031 v 21.859 h 7.609 V 7.609 h 118.656 v 17.875 z"
   id="path15"
   style="fill:#e2001a;fill-opacity:1;stroke:none" />
</svg>
